!!!COM: Bach, Johann Sebastian
!!!OPR: Joh. Seb. Bachs vierstimmige Choralgesänge
!!!XEN: Four-part Chorales
!!!OTL: 185. Wo Gott zum Haus nicht gibt sein' Gunst
!!!SCT: BWV 438
!!!SCA: Thematisch-systematisches Verzeichnis der musikalischen Werke Johann Sebastian Bach: Bach-Werke-Verzeichnis (Schmieder)
!!!YOR: Bach Gesellschaft Edition xxxix
!!!ENC: Steven Rasmussen
!!!CDT: 1685/3//-1750/7/28/
!!!OCY: Deutschland
!!!YEC: Copyright (c) 1994, 2000 Center for Computer Assisted Research in the Humanities
!!!YEM: Rights to all derivative editions reserved
!!!YEN: United States of America
**kern	**kern	**kern	**kern	**silbe
*I:[BASSO]	*I:[TENORE]	*I:[ALTO]	*I:[SOPRANO]	*I:[SOPRANO]
*clefF4	*clefGv2	*clefG2	*clefG2	*
*k[b-]	*k[b-]	*k[b-]	*k[b-]	*
*F:	*F:	*F:	*F:	*
*M4/4	*M4/4	*M4/4	*M4/4	*
8FL	8AL	4c	4f	Wo
8GJ	8B-J	.	.	.
=1	=1	=1	=1	=1
8AL	8cL	8fL	4cc	Gott
8B-J	8dJ	8gJ	.	.
4c	4e	8aL	8ccL	zum
.	.	8gJ	8b-J	.
4F	4c	8gL	4a	Haus
.	.	8fJ	.	.
4C	4c	8fL	4g	nicht
.	.	8eJ	.	.
=2	=2	=2	=2	=2
4F	4c	8fL	4a	gibt
.	.	8eJ	.	.
4G	4G	4d	4bn	sein'
4C;	4G;	4e;	4cc;	Gunst,
4E	4c	4g	4cc	so
=3	=3	=3	=3	=3
4F	4c	8gL	4a	ar-
.	.	8fJ	.	.
8EL	8cL	8gL	4cc	-beit'
8CJ	8eJ	8aJ	.	.
8DL	8fL	8aL	4b-	je-
8GJ	8dJ	16gL	.	.
.	.	16fJJ	.	.
8EL	4c	4g	4cc	-der
8CJ	.	.	.	.
=4	=4	=4	=4	=4
4F	4c	(8g	4a	Mann
.	.	4f)	.	.
4C	8cL	.	4g	um-
.	8B-J	8e	.	.
4FF;	4A;	4c;	4f;	-sunst;
4F	4A	4f	4cc	wo
=5	=5	=5	=5	=5
8BB-L	4B-	4f	4dd	Gott
8CJ	.	.	.	.
8DL	8FL	4f	4dd	die
8EJ	8GJ	.	.	.
8FL	4A	4.c	4a	Stadt
8GJ	.	.	.	.
8AL	8fL	.	4cc	nicht
8F#J	8e-J	8a	.	.
=6	=6	=6	=6	=6
8GL	4d	8aL	4b-	selbst
8AJ	.	16gL	.	.
.	.	16f#JJ	.	.
8B-L	4d	4g	4b-	be-
8cJ	.	.	.	.
4d;	4d;	(8gL	4a;	-wacht,
.	.	8f#;J)	.	.
4D	4d	4a	4ff	da
=7	=7	=7	=7	=7
4A	4c	8aL	4ee	ist
.	.	8gJ	.	.
4B-	8dL	8fL	4dd	um-
.	8eJ	8gJ	.	.
8FL	4f	8aL	4.cc	-sonst
8EJ	.	8gJ	.	.
4D	4A	4f	.	.
.	.	.	8dd	der
=8	=8	=8	=8	=8
4G	4.B-	4.f	8b-L	WÃ¤ch-
.	.	.	8aJ	.
4C	.	.	4g	-ter
.	16cLL	8e	.	.
.	16B-JJ	.	.	.
4F;	4A;	4c;	4f;	Macht.
==|!	==|!	==|!	==|!	==|!
*-	*-	*-	*-	*-
!!!RWG: Key is interpreted using the Humdrum key tool.
!!!URL-pdf: https://s9.imslp.org/files/imglnks/usimg/6/6b/IMSLP24489-PMLP09471-CCARH_Bach_Chorales.pdf#page=129 Musedata edition
!!!URL-pdf: https://s9.imslp.org/files/imglnks/usimg/7/7a/IMSLP04155-Bach_-_BGA_253-438.pdf#page=102 	Bach-Gesellschaft Ausgabe, Band 39 (pp.175-276) Leipzig: Breitkopf und Härtel, 1892. Plate B.W. XXXIX.
!!!END: 1994/08/09
!!!EMD: Converted from MuseData to Humdrum Dec 19, 2000, by Andreas Kornstaedt using muse2kern.
!!!EED: Craig Stuart Sapp
!!!EEV: 2024/03/31
!!!ONB: Some non-unicode characters
!!!filter-keyboard: satb2gs
